X: 24
T:Captain White's Jig
M:6/8
L:1/8
K:G
GcB d2 b | agf e2 d | Bcd g2 B | dcB A3 | GcB d2 b | agf e2 d | Bed g2 b
 | agf g3 :||:
a3 d3 | aba d2 b | aba gfe | d2 e f2 g | a3 d3 | aba d2 b | aba gfe |1 d
3 d3 :||2 d2 c B2 c ||:
d2 b bab | a2 d d3 | d2 b bab | c'2 a a2 e | d2 b bab | a2 d d3 | efg a2
 f |1 g3 gfe :||2 g3 g3 ||
